svgs/light/ruler-triangle.svg

<svg xmlns="http://www.w3.org/2000/svg" viewBox="0 0 512 512"><!--! Font Awesome Pro 6.1.1 by @fontawesome - https://fontawesome.com License - https://fontawesome.com/license (Commercial License) Copyright 2022 Fonticons, Inc. --><path d="M121.9 241.2C127.9 238.7 134.7 240.1 139.3 244.7L267.3 372.7C271.9 377.3 273.3 384.1 270.8 390.1C268.3 396.1 262.5 400 256 400H128C119.2 400 112 392.8 112 384V256C112 249.5 115.9 243.7 121.9 241.2V241.2zM144 294.6V368H217.4L144 294.6zM77.26 13.26L498.7 434.7C507.2 443.2 512 454.7 512 466.7C512 491.7 491.7 512 466.7 512H64C28.65 512 0 483.3 0 448V45.25C0 20.26 20.26 0 45.25 0C57.26 0 68.77 4.768 77.25 13.25L77.26 13.26zM32 45.26V448C32 465.7 46.33 480 64 480H466.7C474.1 480 480 474.1 480 466.7C480 463.2 478.6 459.9 476.1 457.4L436.7 417.9L411.3 443.3C405.1 449.6 394.9 449.6 388.7 443.3C382.4 437.1 382.4 426.9 388.7 420.7L414.1 395.3L356.7 337.9L331.3 363.3C325.1 369.6 314.9 369.6 308.7 363.3C302.4 357.1 302.4 346.9 308.7 340.7L334.1 315.3L276.7 257.9L251.3 283.3C245.1 289.6 234.9 289.6 228.7 283.3C222.4 277.1 222.4 266.9 228.7 260.7L254.1 235.3L196.7 177.9L171.3 203.3C165.1 209.6 154.9 209.6 148.7 203.3C142.4 197.1 142.4 186.9 148.7 180.7L174.1 155.3L116.7 97.94L91.31 123.3C85.07 129.6 74.94 129.6 68.69 123.3C62.44 117.1 62.44 106.9 68.69 100.7L94.06 75.31L54.63 35.88C52.14 33.4 48.77 32 45.26 32C37.94 32 32 37.94 32 45.26L32 45.26z"/></svg>

<svg xmlns="http://www.w3.org/2000/svg" viewBox="0 0 512 512"><!--! Font Awesome Pro 6.5.1 by @fontawesome - https://fontawesome.com License - https://fontawesome.com/license (Commercial License) Copyright 2023 Fonticons, Inc. --><path d="M32 45.3V448c0 17.7 14.3 32 32 32H466.7c7.3 0 13.3-5.9 13.3-13.3c0-3.5-1.4-6.9-3.9-9.4l-39.4-39.4-25.4 25.4c-6.2 6.2-16.4 6.2-22.6 0s-6.2-16.4 0-22.6l25.4-25.4-57.4-57.4-25.4 25.4c-6.2 6.2-16.4 6.2-22.6 0s-6.2-16.4 0-22.6l25.4-25.4-57.4-57.4-25.4 25.4c-6.2 6.2-16.4 6.2-22.6 0s-6.2-16.4 0-22.6l25.4-25.4-57.4-57.4-25.4 25.4c-6.2 6.2-16.4 6.2-22.6 0s-6.2-16.4 0-22.6l25.4-25.4L116.7 97.9 91.3 123.3c-6.2 6.2-16.4 6.2-22.6 0s-6.2-16.4 0-22.6L94.1 75.3 54.6 35.9c-2.5-2.5-5.9-3.9-9.4-3.9C37.9 32 32 37.9 32 45.3zm45.3-32L498.7 434.7c8.5 8.5 13.3 20 13.3 32c0 25-20.3 45.3-45.3 45.3H64c-35.3 0-64-28.7-64-64V45.3C0 20.3 20.3 0 45.3 0c12 0 23.5 4.8 32 13.3zm44.6 228c6-2.5 12.9-1.1 17.4 3.5l128 128c4.6 4.6 5.9 11.5 3.5 17.4s-8.3 9.9-14.8 9.9H128c-8.8 0-16-7.2-16-16V256c0-6.5 3.9-12.3 9.9-14.8zM144 294.6V368h73.4L144 294.6z"/></svg>
